X: 1
T: Springlek efter Omas Per
R: Polska
S: Utlärd av Kalle Almlöf
Z: Karin Arén
M: 3/4
L: 1/8
K: Dm
|: g>e f<d e>d | ^c>=B A<G F>G | A>g fe/d/ e>A | ^c<e d2 A2 |
g>e f<d e>d | ^c>=B A<G F>G | A>g fe/d/ e>A | ^c<e d4 :|:
(3[F2A2][E2A2][F2A2] [DA]>[DA] | [FA]([EA] [EA])[D/A/][E/A/] [FA]>[GA] | (3A=B^c d2 A2 | 
(3[F2A2][E2A2][F2A2] [DA]>[DA] | [FA]([EA] [EA])[D/A/][E/A/] [FA]>[GA] | (3A=B^c d2 f>e |^c<e d4 :|

